X: 4
T: Michael Preston's Highland Fling
M: 4/4
L: 1/8
R: highland fling
K: Gmaj
|: (3edB |\
G>BB>A G>Bd>B | F>AA>G (3FGA D>F | 
G>B B2 G>Bd>g | f>ga>f g2 :|
|: (3def |\
g>bb>d f>ga>b | a>ge>f g>ed>B |
[1 g>b b2 f>ga>b | a>ge>f g2 |
[2 a>ba>f g>fe>d | c>AF>A G2 |]
